; generated by Slic3r 1.33.8 on 2018-03-03 at 17:28:50

; external perimeters extrusion width = 0.40mm
; perimeters extrusion width = 0.48mm
; infill extrusion width = 0.48mm
; solid infill extrusion width = 0.48mm
; top infill extrusion width = 0.48mm

M107
M190 S65 ; set bed temperature and wait for it to be reached
M104 S215 ; set temperature
G28 ; home all axes
G1 Z5 F5000 ; lift nozzle

M109 S215 ; set temperature and wait for it to be reached
G21 ; set units to millimeters
G90 ; use absolute coordinates
M82 ; use absolute distances for extrusion
G92 E0
G1 Z0.300 F7800.000
G1 E-8.00000 F2400.00000
G92 E0
G1 Z0.400 F7800.000
G1 X125.511 Y127.017 F7800.000
G1 Z0.300 F7800.000
G1 E8.00000 F2400.00000
G1 F1800
G1 X125.809 Y126.658 E8.03116
G1 X126.189 Y126.252 E8.06831
G1 X127.082 Y125.457 E8.14818
G1 X127.841 Y124.920 E8.21027
G1 X128.847 Y124.358 E8.28725
G1 X129.695 Y124.002 E8.34868
G1 X130.382 Y123.779 E8.39698
G1 X130.820 Y123.663 E8.42726
G1 X131.306 Y123.563 E8.46036
G1 X131.877 Y123.477 E8.49896
G1 X132.920 Y123.412 E8.56879
G1 X197.270 Y123.419 E12.86772
G1 X198.234 Y123.490 E12.93230
G1 X199.019 Y123.624 E12.98550
G1 X199.917 Y123.863 E13.04756
G1 X200.577 Y124.103 E13.09450
G1 X201.398 Y124.476 E13.15472
G1 X202.157 Y124.913 E13.21326
G1 X203.039 Y125.550 E13.28588
G1 X203.679 Y126.115 E13.34293
G1 X204.425 Y126.933 E13.41690
G1 X204.921 Y127.590 E13.47188
G1 X205.158 Y127.961 E13.50128
G1 X205.498 Y128.559 E13.54728
G1 X205.843 Y129.284 E13.60094
G1 X206.009 Y129.713 E13.63165
G1 X206.215 Y130.350 E13.67638
G1 X206.408 Y131.132 E13.73014
G1 X206.543 Y132.031 E13.79091
G1 X206.589 Y132.983 E13.85458
G1 X206.583 Y197.269 E18.14924
G1 X206.503 Y198.261 E18.21572
G1 X206.371 Y199.026 E18.26754
G1 X206.133 Y199.916 E18.32915
G1 X205.893 Y200.577 E18.37609
G1 X205.524 Y201.390 E18.43577
G1 X205.087 Y202.150 E18.49433
G1 X204.448 Y203.036 E18.56730
G1 X203.886 Y203.672 E18.62396
G1 X203.065 Y204.422 E18.69827
G1 X202.414 Y204.914 E18.75277
G1 X202.038 Y205.154 E18.78261
G1 X201.445 Y205.492 E18.82819
G1 X200.720 Y205.837 E18.88182
G1 X200.291 Y206.003 E18.91253
G1 X199.655 Y206.209 E18.95724
G1 X198.880 Y206.402 E19.01056
G1 X197.994 Y206.537 E19.07044
G1 X197.021 Y206.588 E19.13554
G1 X132.731 Y206.583 E23.43048
G1 X131.739 Y206.503 E23.49695
G1 X130.969 Y206.370 E23.54915
G1 X130.078 Y206.131 E23.61081
G1 X129.417 Y205.890 E23.65775
G1 X128.604 Y205.521 E23.71742
G1 X127.844 Y205.083 E23.77603
G1 X126.965 Y204.448 E23.84849
G1 X126.328 Y203.886 E23.90526
G1 X125.582 Y203.070 E23.97907
G1 X125.090 Y202.420 E24.03358
G1 X124.849 Y202.043 E24.06342
G1 X124.512 Y201.450 E24.10901
G1 X124.173 Y200.744 E24.16133
G1 X124.001 Y200.303 E24.19293
G1 X123.797 Y199.674 E24.23712
G1 X123.605 Y198.913 E24.28956
G1 X123.467 Y198.026 E24.34952
G1 X123.412 Y197.080 E24.41284
G1 X123.415 Y132.790 E28.70778
G1 X123.480 Y131.889 E28.76810
G1 X123.563 Y131.304 E28.80758
G1 X123.718 Y130.598 E28.85589
G1 X123.971 Y129.772 E28.91356
G1 X124.322 Y128.929 E28.97458
G1 X124.590 Y128.395 E29.01450
G1 X124.960 Y127.778 E29.06255
G1 X125.475 Y127.064 E29.12135
G1 X125.943 Y127.334 F7800.000
G1 F1800
G1 X126.218 Y127.004 E29.15003
G1 X126.576 Y126.623 E29.18499
G1 X127.427 Y125.867 E29.26103
G1 X128.138 Y125.366 E29.31913
G1 X129.090 Y124.835 E29.39196
G1 X129.878 Y124.505 E29.44904
G1 X130.535 Y124.292 E29.49517
G1 X130.944 Y124.184 E29.52343
G1 X131.402 Y124.090 E29.55462
G1 X131.943 Y124.009 E29.59118
G1 X132.926 Y123.948 E29.65697
G1 X197.235 Y123.953 E33.95315
G1 X198.162 Y124.021 E34.01529
G1 X198.894 Y124.144 E34.06484
G1 X199.750 Y124.373 E34.12408
G1 X200.362 Y124.594 E34.16752
G1 X201.141 Y124.945 E34.22459
G1 X201.858 Y125.358 E34.27987
G1 X202.704 Y125.968 E34.34960
G1 X203.307 Y126.500 E34.40328
G1 X204.016 Y127.278 E34.47364
G1 X204.478 Y127.891 E34.52490
G1 X204.699 Y128.237 E34.55232
G1 X205.027 Y128.814 E34.59663
G1 X205.349 Y129.490 E34.64667
G1 X205.503 Y129.891 E34.67535
G1 X205.702 Y130.505 E34.71846
G1 X205.883 Y131.234 E34.76866
G1 X206.009 Y132.078 E34.82569
G1 X206.053 Y132.984 E34.88630
G1 X206.049 Y197.234 E39.17849
G1 X205.973 Y198.188 E39.24245
G1 X205.849 Y198.906 E39.29109
G1 X205.622 Y199.756 E39.34990
G1 X205.402 Y200.361 E39.39292
G1 X205.049 Y201.144 E39.45031
G1 X204.639 Y201.856 E39.50519
G1 X204.029 Y202.702 E39.57483
G1 X203.501 Y203.300 E39.62813
G1 X202.720 Y204.013 E39.69882
G1 X202.112 Y204.471 E39.74962
G1 X201.761 Y204.696 E39.77747
G1 X201.190 Y205.020 E39.82138
G1 X200.514 Y205.343 E39.87138
G1 X200.114 Y205.498 E39.90006
G1 X199.500 Y205.697 E39.94314
G1 X198.777 Y205.877 E39.99292
G1 X197.940 Y206.004 E40.04953
G1 X197.018 Y206.053 E40.11119
G1 X132.766 Y206.049 E44.40354
G1 X131.812 Y205.973 E44.46749
G1 X131.095 Y205.849 E44.51608
G1 X130.244 Y205.622 E44.57493
G1 X129.633 Y205.400 E44.61837
G1 X128.856 Y205.049 E44.67533
G1 X128.143 Y204.639 E44.73027
G1 X127.299 Y204.029 E44.79983
G1 X126.700 Y203.500 E44.85324
G1 X125.991 Y202.724 E44.92345
G1 X125.532 Y202.118 E44.97426
G1 X125.308 Y201.767 E45.00210
G1 X124.982 Y201.195 E45.04602
G1 X124.664 Y200.531 E45.09519
G1 X124.504 Y200.119 E45.12472
G1 X124.307 Y199.513 E45.16732
G1 X124.127 Y198.796 E45.21667
G1 X123.999 Y197.964 E45.27292
G1 X123.947 Y197.068 E45.33287
G1 X123.950 Y132.817 E49.62522
G1 X124.013 Y131.944 E49.68368
G1 X124.089 Y131.406 E49.71996
G1 X124.235 Y130.738 E49.76565
G1 X124.476 Y129.951 E49.82066
G1 X124.812 Y129.146 E49.87892
G1 X125.062 Y128.650 E49.91604
G1 X125.410 Y128.069 E49.96124
G1 X125.906 Y127.381 E50.01794
G1 F6240
G1 X126.218 Y127.004 E49.83913
G1 F6240
G1 X126.576 Y126.623 E49.64792
G1 F6240
G1 X127.427 Y125.867 E49.23203
G1 F6240
G1 X128.138 Y125.366 E48.91426
G1 F6240
G1 X129.090 Y124.835 E48.51592
G1 F6240
G1 X129.878 Y124.505 E48.20374
G1 F6240
G1 X130.535 Y124.292 E47.95145
G1 F6240
G1 X130.944 Y124.184 E47.79686
G1 F6240
G1 X131.402 Y124.090 E47.62630
G1 F6240
G1 X131.943 Y124.009 E47.42635
G1 F6240
G1 X132.926 Y123.948 E47.06651
G1 F6240
G1 X145.648 Y123.949 E42.41794
G1 E42.01794 F2400.00000
G92 E0
G1 Z0.400 F7800.000
G1 X162.257 Y186.425 F7800.000
G1 Z0.300 F7800.000
G1 E8.00000 F2400.00000
G1 F1800
G1 X163.047 Y185.940 E8.06188
G1 X163.852 Y185.648 E8.11913
G1 X164.452 Y185.536 E8.15987
G1 X164.996 Y185.503 E8.19627
G1 X165.596 Y185.540 E8.23644
G1 X166.409 Y185.721 E8.29208
G1 X167.239 Y186.090 E8.35277
G1 X167.996 Y186.635 E8.41510
G1 X168.628 Y187.329 E8.47778
G1 X169.096 Y188.125 E8.53951
G1 X169.369 Y188.923 E8.59585
G1 X169.465 Y189.468 E8.63279
G1 X169.498 Y190.013 E8.66927
G1 X169.451 Y190.667 E8.71307
G1 X169.251 Y191.489 E8.76959
G1 X168.865 Y192.315 E8.83047
G1 X168.305 Y193.062 E8.89290
G1 X167.599 Y193.680 E8.95556
G1 X166.796 Y194.131 E9.01713
G1 X165.936 Y194.407 E9.07741
G1 X165.032 Y194.503 E9.13820
G1 X164.263 Y194.441 E9.18969
G1 X163.431 Y194.222 E9.24720
G1 X162.610 Y193.820 E9.30827
G1 X161.873 Y193.244 E9.37077
G1 X161.269 Y192.527 E9.43339
G1 X160.835 Y191.717 E9.49479
G1 X160.580 Y190.866 E9.55411
G1 X160.494 Y189.977 E9.61379
G1 X160.612 Y188.960 E9.68215
G1 X160.989 Y187.938 E9.75493
G1 X161.566 Y187.081 E9.82397
G1 X162.214 Y186.466 E9.88364
G1 X162.582 Y186.855 F7800.000
G1 F1800
G1 X163.281 Y186.425 E9.93840
G1 X163.994 Y186.167 E9.98908
G1 X164.518 Y186.069 E10.02469
G1 X164.996 Y186.040 E10.05669
G1 X165.521 Y186.072 E10.09182
G1 X166.240 Y186.233 E10.14105
G1 X166.971 Y186.557 E10.19450
G1 X167.638 Y187.037 E10.24939
G1 X168.195 Y187.648 E10.30461
G1 X168.607 Y188.350 E10.35898
G1 X168.848 Y189.057 E10.40891
G1 X168.932 Y189.531 E10.44104
G1 X168.961 Y190.010 E10.47312
G1 X168.920 Y190.584 E10.51157
G1 X168.744 Y191.311 E10.56151
G1 X168.404 Y192.038 E10.61514
G1 X167.910 Y192.696 E10.67012
G1 X167.289 Y193.240 E10.72531
G1 X166.581 Y193.638 E10.77954
G1 X165.825 Y193.880 E10.83253
G1 X165.025 Y193.965 E10.88632
G1 X164.353 Y193.911 E10.93130
G1 X163.619 Y193.718 E10.98205
G1 X162.896 Y193.363 E11.03584
G1 X162.247 Y192.856 E11.09089
G1 X161.715 Y192.224 E11.14604
G1 X161.333 Y191.511 E11.20012
G1 X161.108 Y190.762 E11.25233
G1 X161.033 Y189.982 E11.30471
G1 X161.136 Y189.086 E11.36499
G1 X161.469 Y188.184 E11.42919
G1 X161.977 Y187.429 E11.49000
G1 X162.539 Y186.896 E11.54171
G1 X162.907 Y187.285 F7800.000
G1 F1800
G1 X163.514 Y186.910 E11.58936
G1 X164.135 Y186.685 E11.63346
G1 X164.583 Y186.602 E11.66394
G1 X164.996 Y186.576 E11.69155
G1 X165.446 Y186.604 E11.72164
G1 X166.071 Y186.744 E11.76445
G1 X166.703 Y187.024 E11.81066
G1 X167.280 Y187.439 E11.85813
G1 X167.761 Y187.967 E11.90587
G1 X168.118 Y188.574 E11.95288
G1 X168.328 Y189.191 E11.99642
G1 X168.399 Y189.594 E12.02373
G1 X168.424 Y190.007 E12.05141
G1 X168.389 Y190.501 E12.08450
G1 X168.236 Y191.132 E12.12787
G1 X167.942 Y191.761 E12.17423
G1 X167.515 Y192.330 E12.22177
G1 X166.978 Y192.801 E12.26949
G1 X166.366 Y193.144 E12.31638
G1 X165.714 Y193.353 E12.36209
G1 X165.018 Y193.427 E12.40887
G1 X164.444 Y193.381 E12.44735
G1 X163.807 Y193.214 E12.49134
G1 X163.182 Y192.907 E12.53785
G1 X162.620 Y192.468 E12.58544
G1 X162.161 Y191.922 E12.63312
G1 X161.830 Y191.305 E12.67988
G1 X161.636 Y190.659 E12.72499
G1 X161.571 Y189.987 E12.77007
G1 X161.661 Y189.211 E12.82226
G1 X161.949 Y188.430 E12.87789
G1 X162.389 Y187.777 E12.93046
G1 X162.864 Y187.326 E12.97421
G1 X163.232 Y187.715 F7800.000
G1 F1800
G1 X163.748 Y187.395 E13.01475
G1 X164.276 Y187.204 E13.05228
G1 X164.649 Y187.134 E13.07762
G1 X164.996 Y187.113 E13.10084
G1 X165.370 Y187.136 E13.12588
G1 X165.902 Y187.255 E13.16229
G1 X166.435 Y187.492 E13.20126
G1 X166.922 Y187.841 E13.24129
G1 X167.328 Y188.287 E13.28156
G1 X167.628 Y188.799 E13.32121
G1 X167.808 Y189.325 E13.35835
G1 X167.866 Y189.657 E13.38085
G1 X167.887 Y190.004 E13.40414
G1 X167.858 Y190.418 E13.43187
G1 X167.728 Y190.954 E13.46867
G1 X167.480 Y191.484 E13.50777
G1 X167.120 Y191.964 E13.54786
G1 X166.667 Y192.361 E13.58811
G1 X166.151 Y192.651 E13.62766
G1 X165.603 Y192.826 E13.66607
G1 X165.011 Y192.889 E13.70586
G1 X164.534 Y192.851 E13.73783
G1 X163.995 Y192.709 E13.77506
G1 X163.468 Y192.451 E13.81428
G1 X162.994 Y192.081 E13.85443
G1 X162.607 Y191.620 E13.89464
G1 X162.328 Y191.100 E13.93408
G1 X162.164 Y190.555 E13.97209
G1 X162.110 Y189.992 E14.00986
G1 X162.186 Y189.336 E14.05397
G1 X162.430 Y188.676 E14.10102
G1 X162.800 Y188.125 E14.14536
G1 X163.189 Y187.756 E14.18115
G1 X163.557 Y188.145 F7800.000
G1 F1800
G1 X163.982 Y187.880 E14.21457
G1 X164.418 Y187.722 E14.24554
G1 X164.715 Y187.667 E14.26574
G1 X164.996 Y187.650 E14.28457
G1 X165.295 Y187.668 E14.30457
G1 X165.733 Y187.766 E14.33456
G1 X166.167 Y187.959 E14.36629
G1 X166.564 Y188.243 E14.39889
G1 X166.894 Y188.606 E14.43169
G1 X167.139 Y189.023 E14.46398
G1 X167.288 Y189.459 E14.49472
G1 X167.334 Y189.719 E14.51241
G1 X167.351 Y190.002 E14.53130
G1 X167.327 Y190.336 E14.55367
G1 X167.220 Y190.775 E14.58389
G1 X167.018 Y191.207 E14.61573
G1 X166.725 Y191.598 E14.64839
G1 X166.356 Y191.921 E14.68116
G1 X165.936 Y192.157 E14.71337
G1 X165.492 Y192.300 E14.74449
G1 X165.004 Y192.351 E14.77728
G1 X164.624 Y192.321 E14.80275
G1 X164.183 Y192.205 E14.83322
G1 X163.754 Y191.994 E14.86515
G1 X163.368 Y191.693 E14.89785
G1 X163.052 Y191.318 E14.93060
G1 X162.825 Y190.894 E14.96272
G1 X162.692 Y190.451 E14.99361
G1 X162.648 Y189.997 E15.02409
G1 X162.710 Y189.462 E15.06010
G1 X162.910 Y188.921 E15.09858
G1 X163.211 Y188.473 E15.13469
G1 X163.514 Y188.186 E15.16252
G1 X163.502 Y187.749 F7800.000
G1 X164.263 Y179.441 F7800.000
G1 F1800
G1 X163.431 Y179.222 E15.22004
G1 X162.610 Y178.820 E15.28111
G1 X161.873 Y178.244 E15.34361
G1 X161.269 Y177.527 E15.40622
G1 X160.835 Y176.717 E15.46762
G1 X160.580 Y175.866 E15.52694
G1 X160.494 Y174.977 E15.58663
G1 X160.612 Y173.960 E15.65499
G1 X160.989 Y172.938 E15.72776
G1 X161.566 Y172.081 E15.79681
G1 X162.257 Y171.425 E15.86048
G1 X163.047 Y170.940 E15.92236
G1 X163.852 Y170.648 E15.97960
G1 X164.452 Y170.536 E16.02035
G1 X164.996 Y170.503 E16.05675
G1 X165.596 Y170.540 E16.09692
G1 X166.409 Y170.721 E16.15256
G1 X167.239 Y171.090 E16.21325
G1 X167.996 Y171.635 E16.27558
G1 X168.628 Y172.329 E16.33826
G1 X169.096 Y173.125 E16.39999
G1 X169.369 Y173.923 E16.45632
G1 X169.465 Y174.468 E16.49327
G1 X169.498 Y175.013 E16.52975
G1 X169.451 Y175.667 E16.57355
G1 X169.251 Y176.489 E16.63007
G1 X168.865 Y177.315 E16.69095
G1 X168.305 Y178.062 E16.75338
G1 X167.599 Y178.680 E16.81604
G1 X166.796 Y179.131 E16.87760
G1 X165.936 Y179.407 E16.93789
G1 X165.032 Y179.503 E16.99868
G1 X164.323 Y179.446 E17.04616
G1 X164.366 Y178.912 F7800.000
G1 F1800
G1 X163.619 Y178.718 E17.09773
G1 X162.896 Y178.363 E17.15151
G1 X162.247 Y177.856 E17.20656
G1 X161.715 Y177.224 E17.26171
G1 X161.333 Y176.511 E17.31579
G1 X161.108 Y175.762 E17.36800
G1 X161.033 Y174.982 E17.42038
G1 X161.136 Y174.086 E17.48066
G1 X161.469 Y173.184 E17.54486
G1 X161.977 Y172.429 E17.60567
G1 X162.585 Y171.852 E17.66165
G1 X163.281 Y171.425 E17.71616
G1 X163.994 Y171.167 E17.76683
G1 X164.518 Y171.069 E17.80244
G1 X164.996 Y171.040 E17.83445
G1 X165.521 Y171.072 E17.86958
G1 X166.240 Y171.233 E17.91881
G1 X166.971 Y171.557 E17.97225
G1 X167.638 Y172.037 E18.02715
G1 X168.195 Y172.648 E18.08236
G1 X168.607 Y173.350 E18.13673
G1 X168.848 Y174.057 E18.18667
G1 X168.932 Y174.531 E18.21880
G1 X168.961 Y175.010 E18.25088
G1 X168.920 Y175.584 E18.28932
G1 X168.744 Y176.311 E18.33927
G1 X168.404 Y177.038 E18.39289
G1 X167.910 Y177.696 E18.44787
G1 X167.289 Y178.240 E18.50306
G1 X166.581 Y178.638 E18.55729
G1 X165.825 Y178.880 E18.61029
G1 X165.025 Y178.965 E18.66407
G1 X164.426 Y178.917 E18.70422
G1 X164.468 Y178.383 F7800.000
G1 F1800
G1 X163.807 Y178.214 E18.74984
G1 X163.182 Y177.907 E18.79634
G1 X162.620 Y177.468 E18.84394
G1 X162.161 Y176.922 E18.89162
G1 X161.830 Y176.305 E18.93838
G1 X161.636 Y175.659 E18.98349
G1 X161.571 Y174.987 E19.02857
G1 X161.661 Y174.211 E19.08076
G1 X161.949 Y173.430 E19.13638
G1 X162.389 Y172.777 E19.18896
G1 X162.913 Y172.279 E19.23726
G1 X163.514 Y171.910 E19.28438
G1 X164.135 Y171.685 E19.32849
G1 X164.583 Y171.602 E19.35896
G1 X164.996 Y171.576 E19.38657
G1 X165.446 Y171.604 E19.41666
G1 X166.071 Y171.744 E19.45948
G1 X166.703 Y172.024 E19.50569
G1 X167.280 Y172.439 E19.55315
G1 X167.761 Y172.967 E19.60089
G1 X168.118 Y173.574 E19.64790
G1 X168.328 Y174.191 E19.69144
G1 X168.399 Y174.594 E19.71875
G1 X168.424 Y175.007 E19.74644
G1 X168.389 Y175.501 E19.77952
G1 X168.236 Y176.132 E19.82290
G1 X167.942 Y176.761 E19.86926
G1 X167.515 Y177.330 E19.91680
G1 X166.978 Y177.801 E19.96451
G1 X166.366 Y178.144 E20.01140
G1 X165.714 Y178.353 E20.05711
G1 X165.018 Y178.427 E20.10389
G1 X164.528 Y178.388 E20.13672
G1 X164.571 Y177.854 F7800.000
G1 F1800
G1 X163.995 Y177.709 E20.17638
G1 X163.468 Y177.451 E20.21560
G1 X162.994 Y177.081 E20.25575
G1 X162.607 Y176.620 E20.29597
G1 X162.328 Y176.100 E20.33540
G1 X162.164 Y175.555 E20.37341
G1 X162.110 Y174.992 E20.41118
G1 X162.186 Y174.336 E20.45529
G1 X162.430 Y173.676 E20.50234
G1 X162.800 Y173.125 E20.54668
G1 X163.241 Y172.707 E20.58729
G1 X163.748 Y172.395 E20.62703
G1 X164.276 Y172.204 E20.66457
G1 X164.649 Y172.134 E20.68991
G1 X164.996 Y172.113 E20.71313
G1 X165.370 Y172.136 E20.73817
G1 X165.902 Y172.255 E20.77458
G1 X166.435 Y172.492 E20.81355
G1 X166.922 Y172.841 E20.85358
G1 X167.328 Y173.287 E20.89385
G1 X167.628 Y173.799 E20.93350
G1 X167.808 Y174.325 E20.97064
G1 X167.866 Y174.657 E20.99314
G1 X167.887 Y175.004 E21.01642
G1 X167.858 Y175.418 E21.04416
G1 X167.728 Y175.954 E21.08095
G1 X167.480 Y176.484 E21.12005
G1 X167.120 Y176.964 E21.16015
G1 X166.667 Y177.361 E21.20039
G1 X166.151 Y177.651 E21.23994
G1 X165.603 Y177.826 E21.27836
G1 X165.011 Y177.889 E21.31814
G1 X164.630 Y177.859 E21.34364
G1 X164.673 Y177.325 F7800.000
G1 F1800
G1 X164.183 Y177.205 E21.37736
G1 X163.754 Y176.994 E21.40929
G1 X163.368 Y176.693 E21.44199
G1 X163.052 Y176.318 E21.47474
G1 X162.825 Y175.894 E21.50686
G1 X162.692 Y175.451 E21.53775
G1 X162.648 Y174.997 E21.56823
G1 X162.710 Y174.462 E21.60424
G1 X162.910 Y173.921 E21.64272
